X: 25766
T: Mary's Dream
R: reel
M: 4/4
K: Dmajor
|:d2fd gece|d2fdg2fg|afge dBAB|1 dgfe dBAB:|2 dgfe dcdf||
|:eAAB cdef|gfefg2fg|eAAB cdeg|1 fdec dcdf:|2 fdec dBAB||

